podium/img/sprite/telegram.svg

<?xml version="1.0" encoding="iso-8859-1"?>
<!-- Generator: Adobe Illustrator 21.0.0, SVG Export Plug-In . SVG Version: 6.00 Build 0)  -->
<svg xmlns="http://www.w3.org/2000/svg" xmlns:xlink="http://www.w3.org/1999/xlink" version="1.1" id="Capa_1" x="0px" y="0px" viewBox="0 0 512.004 512.004" style="enable-background:new 0 0 512.004 512.004;" xml:space="preserve" width="512" height="512">
<path d="M508.194,20.517c-4.43-4.96-11.42-6.29-17.21-3.76l-482,211c-5.34,2.34-8.85,7.57-8.98,13.41  c-0.13,5.83,3.14,11.21,8.38,13.79l115.09,56.6l28.68,172.06c0.93,6.53,6.06,11.78,12.74,12.73c4.8,0.69,9.57-1,12.87-4.4  l90.86-90.86l129.66,92.62c4.16,2.96,9.52,3.61,14.24,1.74c4.73-1.87,8.19-6.02,9.19-11.01l90-451  C512.604,28.967,511.454,24.177,508.194,20.517z M135.354,283.967l-84.75-41.68l334.82-146.57L135.354,283.967z M182.294,328.557  l-13.95,69.75l-15.05-90.3l183.97-138.49l-150.88,151.39C184.264,323.027,182.854,325.787,182.294,328.557z M191.424,435.857  l15.74-78.67l36.71,26.22L191.424,435.857z M396.834,455.797l-176.73-126.23l252.47-253.31L396.834,455.797z"/>















</svg>

<svg xmlns="http://www.w3.org/2000/svg" viewBox="0 0 512.004 512.004" width="512" height="512"><path d="M508.194 20.517c-4.43-4.96-11.42-6.29-17.21-3.76l-482 211a15.01 15.01 0 0 0-8.98 13.41 15.005 15.005 0 0 0 8.38 13.79l115.09 56.6 28.68 172.06c.93 6.53 6.06 11.78 12.74 12.73 4.8.69 9.57-1 12.87-4.4l90.86-90.86 129.66 92.62a15.02 15.02 0 0 0 14.24 1.74 15.01 15.01 0 0 0 9.19-11.01l90-451c.89-4.47-.26-9.26-3.52-12.92zm-372.84 263.45l-84.75-41.68 334.82-146.57-250.07 188.25zm46.94 44.59l-13.95 69.75-15.05-90.3 183.97-138.49-150.88 151.39c-2.12 2.12-3.53 4.88-4.09 7.65zm9.13 107.3l15.74-78.67 36.71 26.22-52.45 52.45zm205.41 19.94l-176.73-126.23 252.47-253.31-75.74 379.54z"/></svg>
